svgs/teehub.svg

<svg xmlns="http://www.w3.org/2000/svg" viewBox="0 0 192 192"><path d="M36.538 133.416C23.568 127.864 16 114.018 16 95.842c0-24.703 16.504-43.566 34.202-39.09 6.639 1.679 16.083 10.816 19.365 18.736 12.839 30.977-8.512 68.422-33.029 57.928Zm15.455-26.926c3.904-5.847 4.574-9.567 2.895-16.06-1.63-6.303-8.678-11.557-12.84-9.571-5.018 2.394-8.508 8.409-8.508 14.662 0 12.981 12.248 20.262 18.453 10.969Zm33.678 23.677c-4.35-3.181-8.822-7.662-9.937-9.956-1.817-3.738-1.798-4.644.183-8.719 2.718-5.592 5.694-5.712 13.58-.547l6.108 4.001 6.107-4.001c7.436-4.87 10.332-5.017 13.247-.674 3.033 4.519 2.806 8.064-.803 12.527-3.492 4.318-16.274 13.274-18.844 13.202-.952-.027-5.291-2.652-9.641-5.833Zm55.133 4.219c-23.377-7.898-31.026-45.476-13.651-67.068 12.542-15.585 28.325-15.034 40.153 1.402 14.565 20.239 10.33 50.125-8.962 63.251-4.024 2.737-12.949 3.966-17.54 2.415Zm13.553-28.268c8.504-11.465-.118-29.729-11.507-24.376-4.928 2.316-6.769 6.38-6.769 14.947 0 12.43 11.608 18.419 18.276 9.429Z"/></svg>

<svg
    xmlns="http://www.w3.org/2000/svg"
    viewBox="0 0 192 192"
    id="vector">
    <g id="group">
        <path
            id="path"
            d="M 36.538 133.416 C 23.568 127.864 16 114.018 16 95.842 C 16 71.139 32.504 52.276 50.202 56.752 C 56.841 58.431 66.285 67.568 69.567 75.488 C 82.406 106.465 61.055 143.91 36.538 133.416 Z M 51.993 106.49 C 55.897 100.643 56.567 96.923 54.888 90.43 C 53.258 84.127 46.21 78.873 42.048 80.859 C 37.03 83.253 33.54 89.268 33.54 95.521 C 33.54 108.502 45.788 115.783 51.993 106.49 Z M 85.671 130.167 C 81.321 126.986 76.849 122.505 75.734 120.211 C 73.917 116.473 73.936 115.567 75.917 111.492 C 78.635 105.9 81.611 105.78 89.497 110.945 L 95.605 114.946 L 101.712 110.945 C 109.148 106.075 112.044 105.928 114.959 110.271 C 117.992 114.79 117.765 118.335 114.156 122.798 C 110.664 127.116 97.882 136.072 95.312 136 C 94.36 135.973 90.021 133.348 85.671 130.167 Z M 140.804 134.386 C 117.427 126.488 109.778 88.91 127.153 67.318 C 139.695 51.733 155.478 52.284 167.306 68.72 C 181.871 88.959 177.636 118.845 158.344 131.971 C 154.32 134.708 145.395 135.937 140.804 134.386 Z M 154.357 106.118 C 162.861 94.653 154.239 76.389 142.85 81.742 C 137.922 84.058 136.081 88.122 136.081 96.689 C 136.081 109.119 147.689 115.108 154.357 106.118 Z"
            fill="#000000"
            stroke-width="12"/>
    </g>
</svg>
